Adwaita++/status/16/appointment-soon.svg

<svg height="16" width="16" xmlns="http://www.w3.org/2000/svg">
  <path d="m6.5 0c-3.578 0-6.5 2.922-6.5 6.5s2.922 6.5 6.5 6.5c.17 0 .333-.018.5-.031v-2.031c-.167.018-.327.062-.5.062a4.485 4.485 0 0 1 -4.5-4.5c0-2.497 2.003-4.5 4.5-4.5s4.5 2.003 4.5 4.5c0 .173-.044.333-.063.5h2.032c.013-.167.031-.33.031-.5 0-3.578-2.922-6.5-6.5-6.5z" fill="#474747"/>
  <path d="m6.492 2.992a.5.5 0 0 0 -.492.508v2.5h-1.5a.5.5 0 1 0 0 1h2a.5.5 0 0 0 .5-.5v-3a.5.5 0 0 0 -.508-.508z" fill="#474747"/>
  <path class="warning" d="m8.875 8.068a.861.861 0 0 0 -.875.87v6.195a.86.86 0 0 0 .875.867h6.25a.86.86 0 0 0 .875-.867v-6.195a.861.861 0 0 0 -.875-.87zm2.125.932h2v2.5s0 .5-.5.5h-1c-.5 0-.5-.5-.5-.5zm.5 4h1c.277 0 .5.223.5.5v1c0 .277-.223.5-.5.5h-1a.499.499 0 0 1 -.5-.5v-1c0-.277.223-.5.5-.5z" fill="#f57900"/>
</svg>

<svg xmlns="http://www.w3.org/2000/svg" width="16" height="16">
    <path d="M6.5 0C2.922 0 0 2.922 0 6.5S2.922 13 6.5 13c.17 0 .333-.018.5-.031v-2.031c-.167.018-.327.062-.5.062A4.485 4.485 0 0 1 2 6.5C2 4.003 4.003 2 6.5 2S11 4.003 11 6.5c0 .173-.044.333-.063.5h2.032c.013-.167.031-.33.031-.5C13 2.922 10.078 0 6.5 0z" style="line-height:normal;-inkscape-font-specification:Sans;text-indent:0;text-align:start;text-decoration-line:none;text-transform:none;marker:none" color="#000" font-weight="400" font-size="xx-small" font-family="Sans" overflow="visible" fill="#474747"/>
    <path d="M6.492 2.992A.5.5 0 0 0 6 3.5V6H4.5a.5.5 0 1 0 0 1h2a.5.5 0 0 0 .5-.5v-3a.5.5 0 0 0-.508-.508z" style="line-height:normal;font-variant-ligatures:normal;font-variant-position:normal;font-variant-caps:normal;font-variant-numeric:normal;font-variant-alternates:normal;font-feature-settings:normal;text-indent:0;text-align:start;text-decoration-line:none;text-decoration-style:solid;text-decoration-color:#000;text-transform:none;text-orientation:mixed;shape-padding:0;isolation:auto;mix-blend-mode:normal" color="#000" font-weight="400" font-family="sans-serif" white-space="normal" overflow="visible" fill="#474747"/>
    <path class="warning" d="M8.875 8.068a.861.861 0 0 0-.875.87v6.195a.86.86 0 0 0 .875.867h6.25a.86.86 0 0 0 .875-.867V8.938a.861.861 0 0 0-.875-.87zM11 9h2v2.5s0 .5-.5.5h-1c-.5 0-.5-.5-.5-.5zm.5 4h1c.277 0 .5.223.5.5v1c0 .277-.223.5-.5.5h-1a.499.499 0 0 1-.5-.5v-1c0-.277.223-.5.5-.5z" style="marker:none" color="#bebebe" overflow="visible" fill="#f57900"/>
</svg>
